!!!OTL: 53. Morgenlied der schwarzen Freischaar. 1813-1814.
!!!COM: Volksmelodie
!!!ARE: Europa, Mitteleuropa, Deutschland
!!!SCT: B0053
!!!TXL: @@DE
!!!YEM: Copyright 1995, estate of Helmut Schaffrath.
**kern	**text
*ICvox	*
*Ivox	*
!! Mixed meters:  6/8; 2/4
*M6/8	*
*clefG2	*
*k[b-]	*
*F:	*
!LO:TX:a:t=Munter.	!
{8f	He-
=1	=1
4f	-raus,
8f	he-
4f	-raus
8f	die
=2	=2
4.f	Klin-
4c}	-gen,
{8c	laßt
=3	=3
4a	Roß
8a	und
4a	Klep-
8a	-per
=4	=4
4.a	ſprin-
4f}	-gen,
{8f	der
=5	=5
4g	Mor-
8g	-gen
4bn	graut
8bn	he-
=6	=6
4.cc	-ran,
4r}	.
{8dd^	das
=7	=7
4ee	Ta-
8cc	-ge-
4dd	-werk
8bn	heb
=8	=8
4cc	an.
8r	.
4r}	.
{8cc	He-
=9	=9
4cc	-raus,
8a	he-
4dd	-raus
8cc	die
=10	=10
4.cc	Klin-
4b-}	-gen,
{8b-	laßt
=11	=11
4b-	Roß
8g	und
4cc	Klep-
8b-/	-per
=12	=12
4.b-/	ſprin-
4a}	-gen,
{8f	der
=13	=13
4f	Mor-
8f	-gen
4ff	graut
8dd	he-
=14	=14
4.cc}	-ran,
{4.b-	das
=15	=15
4a	Ta-
8a	-ge-
4cc	-werk
8cc	hebt
=16	=16
*M2/4	*
8f	an.
8r}	.
{8.cc	Tra-
16b-	-la-
=17	=17
8a	-la-
8a	-la-
8g	-la-
8g	-la-
=18	=18
8f	-la,
8r}	.
{8.cc	tra-
16b-	-la-
=19	=19
8a	-la-
8a	-la-
8g	-la-
8g	-la-
=20	=20
4f	-la.
8r}	.
==	==
!!!AGN: Kriegs -, Sieges -, Soldaten - Lied
!!!GTL: Kriegs- und Siegeslieder
!!!ONB: ESAC (Essen Associative Code) Database: BOEHME
!!!AMT: irregular
!!!AIN: vox
!!!EED: Helmut Schaffrath
!!!EEV: 1.0
!!@@COMMENT:"Gedicht von Guſtav Adolph Salchow. Ʒuerſt als fl. Bl. gedruckt. Morgenlied der ſchwarʒen
!!Freiſchaar. Nach der Weiſe: "Es leben die Soldaten", vor Oſtern 1813"
!!@@END:
!!Text: Gustav Adolph Salchow
!!!URL-scan: https://archive.org/details/BoehmeVtLieder1895/page/n69/mode/2up
!!!ENC: Anna Maria Matuszewska
!!!EEV: 2024/14/06
*-	*-
